X: 35346
T: Rosewood
R: jig
M: 6/8
K: Amajor
|:"A"agf "E"ee/f/g|"A"aed cBA|aga cde|"Bm"fB^A "E"B2 e|
"A"aa/g/f "E"efg|"A"a>ed cBA|"D"def "Bm"Bed|"A"cAG A2 e:|
|:"A"cc/d/e Ace|"D"fdc d2 f|"Bm"^def Bd/e/f|"E7"ge^d e2 g|
"A"agf edc|"D"fed "A"cBA|"D"def "Bm"Bed|"A"cAG A2 e:|

